public/images/logos/ami.svg

<svg width="339" height="248" viewBox="0 0 339 248" fill="none" xmlns="http://www.w3.org/2000/svg">
<path d="M304.75 1.69245C296.327 6.36806 296.406 18.8069 304.989 23.0415C314.048 27.6288 323.027 22.4239 323.027 12.5434C323.027 2.75108 313.253 -3.07138 304.75 1.69245Z" fill="black"/>
<path d="M26.7799 48.625C12.3172 52.8595 3.25809 62.5636 3.25809 73.9439C3.25809 79.7663 5.24473 83.0304 9.85373 84.7066C14.2243 86.2063 18.0387 85.4123 21.4557 81.9718C24.7138 78.7959 24.9522 76.3258 22.5682 70.3269C20.9789 66.2688 20.9789 66.0924 22.4093 62.9165C24.4754 58.2409 29.7996 55.5061 37.5872 54.9768C43.1498 54.6239 44.1034 54.8885 48.0767 57.1822C51.7321 59.2995 52.8446 60.5346 54.8312 64.9455C57.0563 69.7976 57.2152 70.768 57.4536 82.1482L57.7715 94.146L45.9311 95.2046C26.3826 96.8808 14.9395 101.204 7.31083 109.673C2.3045 115.142 0.397328 120.435 0.397328 128.463C0.397328 143.019 6.99297 152.018 19.4691 154.488C24.8727 155.635 33.7729 155.105 40.1301 153.429C44.3418 152.282 52.2089 148.136 55.8643 145.048L58.5661 142.843L61.0295 145.401C66.2743 150.871 69.135 151.929 81.2933 153.341C93.2926 154.664 94.9613 154.311 94.9613 150.959C94.9613 148.754 93.6104 147.783 88.6041 146.548C83.5183 145.313 81.1343 143.813 79.7039 141.079C78.9093 139.579 78.5914 130.404 78.1941 105.085C77.7968 74.2085 77.6378 70.768 76.2075 66.7981C73.0288 57.7998 65.1617 50.8305 55.1491 48.1839C47.9177 46.3313 34.0907 46.5077 26.7799 48.625ZM57.6125 132.257L54.9107 134.903C50.5401 139.138 43.9444 141.52 36.3952 141.608C28.7665 141.696 26.462 140.373 23.6807 134.197C20.3432 127.052 22.012 117.7 27.5745 112.584C33.1371 107.379 45.7722 102.703 54.6723 102.527L57.6125 102.439V132.257Z" fill="black"/>
<path d="M155.991 47.831C150.349 49.3307 143.197 54.0946 138.032 59.7406C135.25 62.8283 132.787 65.3866 132.549 65.3866C132.31 65.3866 132.39 62.6518 132.707 59.2995C133.661 49.0661 131.515 46.9488 122.615 49.1543C119.437 49.8601 112.364 51.448 106.881 52.5066L96.948 54.4474V57.0058C96.948 59.4759 97.1864 59.5642 101.954 60.5346C108.232 61.8578 110.537 64.0633 111.649 70.2387C112.205 73.2381 112.444 86.2063 112.285 106.938C111.967 145.931 112.762 143.284 101.319 146.46C96.3917 147.783 96.1533 147.96 96.1533 150.518V153.165H122.615C146.217 153.165 149.077 152.988 149.395 151.753C150.19 149.195 148.918 147.519 145.978 146.989C140.018 145.931 135.966 143.549 134.456 140.373C133.184 137.55 133.105 134.727 133.264 110.378C133.502 84.6184 133.582 83.2951 135.33 78.443C138.985 68.4743 147.726 61.4167 157.978 60.3581C167.752 59.3877 174.506 63.9751 177.844 73.8556C180.069 80.6485 180.943 93.6167 180.625 117.259C180.387 138.079 180.307 139.491 178.718 141.873C176.97 144.431 173.791 146.019 168.705 146.989C166.878 147.342 165.606 148.048 165.288 149.106C164.176 153.165 164.176 153.165 190.32 153.165C212.252 153.165 215.034 152.988 215.352 151.753C216.226 148.842 214.875 147.519 210.186 146.46C203.67 145.048 202.319 143.196 201.286 134.197C200.889 130.228 200.65 117.789 200.809 106.585C201.048 86.471 201.048 86.0299 203.193 81.0014C206.054 74.2967 212.411 66.8863 218.292 63.7104C227.748 58.4173 236.331 59.2113 241.893 65.8277C247.456 72.5323 247.853 75.0025 248.171 108.085C248.409 137.903 248.25 140.373 245.231 143.372C244.515 144.078 241.416 145.401 238.397 146.283C233.072 147.871 232.834 148.048 232.834 150.518V153.165H283.374L283.136 150.606C282.897 148.224 282.421 147.783 278.288 146.46C269.15 143.46 268.991 142.666 268.991 107.114C268.911 76.8551 268.196 69.2682 264.541 61.7696C259.455 51.448 250.634 46.8606 236.013 46.8606C229.655 46.8606 226.954 47.3017 222.662 49.0661C214.795 52.0655 209.074 56.2118 203.909 62.4754L199.3 67.945L198.028 64.8573C196.121 60.5346 189.764 53.2124 185.949 51.0951C184.201 50.0365 181.023 48.7132 178.797 48.0957C174.427 46.7724 160.6 46.596 155.991 47.831Z" fill="black"/>
<path d="M311.187 49.5954C307.532 50.3894 300.459 51.5362 295.453 51.9773C289.096 52.5066 286.076 53.1242 285.599 54.0064C283.771 57.2705 285.281 59.0348 291.162 60.1817C294.261 60.7992 296.963 61.9461 298.393 63.2694C302.287 66.9746 302.764 71.2091 302.764 105.967C302.764 134.286 302.605 137.55 301.333 140.108C299.665 143.637 297.042 145.225 290.844 146.46C285.44 147.607 283.692 149.459 285.52 152.371C285.917 152.988 294.738 153.253 312.538 153.253L339 153.165L338.762 150.518C338.523 148.136 338.126 147.783 333.437 146.46C327.557 144.696 324.776 142.137 323.822 137.197C323.425 135.344 323.027 114.877 323.027 91.7641C323.027 60.3581 322.789 49.5954 322.074 48.8014C320.882 47.4782 319.531 47.5664 311.187 49.5954Z" fill="black"/>
<path d="M24.1575 168.868C15.2574 171.602 9.05907 180.954 7.78762 193.745C7.23136 198.686 6.67511 199.48 3.01969 199.48C0.635725 199.48 0.397328 199.744 0.397328 202.126C0.397328 204.243 0.71519 204.773 2.22504 204.773C3.17862 204.773 4.76793 205.037 5.80098 205.302L7.54923 205.831L7.3903 223.034L7.1519 240.237L3.57595 241.736C1.27145 242.707 0 243.765 0 244.736C0 246.059 1.35092 246.236 14.1449 246.5L28.2103 246.765V244.736C28.2103 243.06 27.654 242.619 24.9522 242.178C19.4691 241.207 19.4691 241.119 19.4691 221.887V204.773H23.7602C27.2567 204.773 28.2103 204.508 28.6076 203.097C29.5612 199.744 28.2897 198.597 23.7602 198.597H19.4691V189.246C19.4691 180.424 20.1048 176.984 22.1709 175.484C24.1575 173.984 25.9852 175.043 28.6871 179.189C31.071 182.894 31.9451 183.6 34.0907 183.6C37.1104 183.6 40.1301 180.512 40.1301 177.513C40.1301 170.455 32.5014 166.309 24.1575 168.868Z" fill="black"/>
<path d="M105.292 193.922C104.656 194.275 102.352 196.215 100.286 198.244C98.1399 200.362 95.0408 202.567 93.2925 203.097C91.6238 203.714 90.1934 204.508 90.1934 204.861C90.1934 205.302 91.6238 206.625 93.372 207.86L96.5506 210.066V240.149L92.9747 241.825C90.988 242.795 89.3987 244.118 89.3987 244.912C89.3987 246.059 91.3854 246.236 104.1 246.236C115.622 246.236 118.801 245.971 118.801 245.089C118.801 243.148 117.053 241.825 114.43 241.825C109.345 241.825 109.027 240.854 108.629 226.21C108.312 215.183 108.47 212.536 109.583 210.242C111.093 206.89 111.649 206.802 116.099 209.184C119.993 211.301 122.774 210.507 124.284 206.802C125.794 203.185 125.317 200.626 122.695 198.244C118.96 194.716 116.02 195.157 111.967 199.921L108.55 203.802L108.312 198.862C108.073 193.922 107.517 193.04 105.292 193.922Z" fill="black"/>
<path d="M318.657 194.186C317.783 194.627 315.876 196.304 314.445 198.068C312.935 199.744 310.154 201.861 308.247 202.655C304.194 204.332 303.717 206.272 307.134 207.684C308.406 208.213 309.677 209.272 309.995 210.066C310.71 212.095 311.425 235.12 310.79 237.767C310.392 239.531 309.28 240.59 306.737 241.825C304.671 242.795 303.161 244.118 303.161 244.912C303.161 246.059 305.148 246.236 317.862 246.236C331.769 246.236 332.563 246.147 332.563 244.559C332.563 242.707 331.053 241.825 327.875 241.825C323.902 241.825 323.266 239.972 322.789 225.945C322.471 216.153 322.63 212.448 323.425 210.242C324.696 206.89 325.411 206.802 329.861 209.184C334.947 211.918 338.921 209.448 338.921 203.538C338.921 200.185 338.126 198.686 335.583 197.186C332.087 195.157 328.431 196.215 325.491 200.009C324.14 201.685 322.948 203.538 322.868 204.155C322.789 204.773 322.551 202.655 322.312 199.568C321.835 193.657 321.279 192.951 318.657 194.186Z" fill="black"/>
<path d="M51.6526 197.098C46.8052 198.862 43.9444 200.803 41.1632 204.067C33.2961 213.153 32.8987 229.386 40.289 238.737C46.6463 246.765 57.2152 249.853 67.7841 246.677C72.2342 245.353 73.744 244.295 77.161 240.59C81.929 235.296 83.8361 229.915 83.8361 221.975C83.8361 211.213 78.9888 202.479 70.9627 198.597C65.7975 196.127 56.3411 195.421 51.6526 197.098ZM66.3537 203.449C69.6913 206.978 70.6449 211.036 70.6449 221.093C70.6449 232.297 69.3734 237.502 65.7975 240.942C62.7778 243.942 59.2813 244.383 54.7518 242.266C50.1428 240.149 48.5534 234.944 48.5534 221.534C48.5534 208.831 49.5865 205.037 53.7982 202.126C57.5331 199.48 63.1751 200.097 66.3537 203.449Z" fill="black"/>
<path d="M170.454 197.451C165.209 199.568 158.375 207.507 156.944 213.153C152.097 231.856 162.03 248 178.4 248C184.519 248 189.684 246.059 194.929 241.736C199.379 238.031 199.856 236.884 197.71 235.208C196.598 234.326 195.724 234.502 192.942 236.179C181.261 243.06 170.136 236.443 168.387 221.623L167.831 217.035L199.459 217.388L199.22 214.389C198.743 209.625 197.075 206.096 193.499 202.214C188.015 196.304 178.48 194.363 170.454 197.451ZM182.294 201.685C184.678 203.008 187.141 207.684 187.141 210.86C187.141 212.624 186.744 212.712 178.003 212.712C169.341 212.712 168.864 212.624 168.864 210.948C168.864 208.301 170.93 204.332 173.314 202.214C175.778 200.009 179.195 199.832 182.294 201.685Z" fill="black"/>
<path d="M270.66 197.009C266.925 198.156 261.76 202.214 259.137 206.008C256.117 210.507 254.687 215.624 254.687 222.328C254.687 230.533 256.594 236.002 261.044 241.031C265.892 246.412 271.057 248.353 278.845 247.824C285.52 247.294 290.526 245.089 295.214 240.413L298.552 237.061L296.883 235.561C295.294 234.061 295.056 234.15 291.559 236.267C288.698 238.031 286.632 238.561 282.897 238.649C278.527 238.737 277.414 238.384 274.474 236.09C270.501 233.003 267.799 227.445 267.084 221.27L266.607 217.035L297.996 217.388L297.837 214.212C297.122 201.773 283.295 192.951 270.66 197.009ZM281.546 201.773C283.771 203.449 285.679 207.507 285.679 210.507V212.712H276.54C266.448 212.712 266.369 212.712 268.514 207.066C270.739 201.067 277.255 198.421 281.546 201.773Z" fill="black"/>
<path d="M202.24 200.097C202.24 201.509 202.955 202.479 204.862 203.361C207.246 204.42 208.041 206.008 214.477 222.064C224.887 247.912 224.887 248 227.589 248C229.735 248 230.132 247.382 233.072 239.796C239.032 224.798 244.277 210.507 244.833 208.037C245.39 205.214 247.694 203.273 251.429 202.479C253.416 202.038 253.892 201.509 253.733 200.009C253.495 198.244 253.098 198.156 243.562 198.156H233.629V200.362C233.629 202.303 234.026 202.567 237.046 202.832C239.509 203.008 240.383 203.449 240.383 204.508C240.383 206.361 234.264 226.386 232.596 229.915L231.404 232.562L230.371 229.915C229.814 228.415 227.351 222.328 224.887 216.329C222.424 210.33 220.596 204.861 220.835 204.155C221.073 203.538 222.106 203.008 223.06 203.008C225.762 203.008 227.113 201.685 226.556 199.832C226.159 198.333 225.126 198.156 214.16 198.156C202.319 198.156 202.24 198.156 202.24 200.097Z" fill="black"/>
</svg>

<svg xmlns="http://www.w3.org/2000/svg" width="339" height="248" fill="none"><path fill="#000" d="M304.75 1.692c-8.423 4.676-8.344 17.115.239 21.35 9.059 4.587 18.038-.618 18.038-10.499 0-9.792-9.774-15.614-18.277-10.85ZM26.78 48.625C12.317 52.859 3.258 62.564 3.258 73.944c0 5.822 1.987 9.086 6.596 10.763 4.37 1.5 8.185.705 11.602-2.735 3.258-3.176 3.496-5.646 1.112-11.645-1.59-4.058-1.59-4.235-.159-7.41 2.066-4.676 7.39-7.41 15.178-7.94 5.563-.353 6.516-.088 10.49 2.205 3.655 2.117 4.768 3.353 6.754 7.763 2.225 4.853 2.384 5.823 2.623 17.203l.318 11.998-11.84 1.059c-19.55 1.676-30.992 5.999-38.621 14.468-5.006 5.469-6.914 10.762-6.914 18.79 0 14.556 6.596 23.555 19.072 26.025 5.404 1.147 14.304.617 20.661-1.059 4.212-1.147 12.079-5.293 15.734-8.381l2.702-2.205 2.463 2.558c5.245 5.47 8.106 6.528 20.264 7.94 12 1.323 13.668.97 13.668-2.382 0-2.205-1.35-3.176-6.357-4.411-5.086-1.235-7.47-2.735-8.9-5.469-.795-1.5-1.113-10.675-1.51-35.994-.397-30.876-.556-34.317-1.987-38.287C73.03 57.8 65.162 50.83 55.15 48.184c-7.231-1.853-21.058-1.676-28.37.441Zm30.832 83.632-2.701 2.646c-4.37 4.235-10.967 6.617-18.516 6.705-7.629.088-9.933-1.235-12.714-7.411-3.338-7.145-1.669-16.497 3.893-21.613 5.563-5.205 18.198-9.881 27.098-10.057l2.94-.088v29.818ZM155.991 47.831c-5.642 1.5-12.794 6.264-17.959 11.91-2.782 3.087-5.245 5.646-5.483 5.646-.239 0-.159-2.735.158-6.087.954-10.234-1.192-12.351-10.092-10.146-3.178.706-10.251 2.294-15.734 3.353l-9.933 1.94v2.559c0 2.47.238 2.558 5.006 3.529 6.278 1.323 8.583 3.528 9.695 9.704.556 3 .795 15.967.636 36.699-.318 38.993.477 36.346-10.966 39.522-4.927 1.323-5.166 1.5-5.166 4.058v2.647h26.462c23.602 0 26.462-.177 26.78-1.412.795-2.558-.477-4.234-3.417-4.764-5.96-1.058-10.012-3.44-11.522-6.616-1.272-2.823-1.351-5.646-1.192-29.995.238-25.76.318-27.083 2.066-31.935 3.655-9.969 12.396-17.026 22.648-18.085 9.774-.97 16.528 3.617 19.866 13.498 2.225 6.793 3.099 19.76 2.781 43.403-.238 20.82-.318 22.232-1.907 24.614-1.748 2.558-4.927 4.146-10.013 5.116-1.827.353-3.099 1.059-3.417 2.117-1.112 4.059-1.112 4.059 25.032 4.059 21.932 0 24.714-.177 25.032-1.412.874-2.911-.477-4.234-5.166-5.293-6.516-1.412-7.867-3.264-8.9-12.263-.397-3.969-.636-16.408-.477-27.612.239-20.114.239-20.555 2.384-25.584 2.861-6.704 9.218-14.115 15.099-17.29 9.456-5.294 18.039-4.5 23.601 2.117 5.563 6.704 5.96 9.174 6.278 42.257.238 29.818.079 32.288-2.94 35.287-.716.706-3.815 2.029-6.834 2.911-5.325 1.588-5.563 1.765-5.563 4.235v2.647h50.54l-.238-2.559c-.239-2.382-.715-2.823-4.848-4.146-9.138-3-9.297-3.794-9.297-39.346-.08-30.259-.795-37.846-4.45-45.344-5.086-10.322-13.907-14.91-28.528-14.91-6.358 0-9.059.442-13.351 2.206-7.867 3-13.588 7.146-18.753 13.41l-4.609 5.469-1.272-3.088c-1.907-4.322-8.264-11.645-12.079-13.762-1.748-1.059-4.926-2.382-7.152-3-4.37-1.323-18.197-1.499-22.806-.264ZM311.187 49.595c-3.655.794-10.728 1.941-15.734 2.382-6.357.53-9.377 1.147-9.854 2.03-1.828 3.264-.318 5.028 5.563 6.175 3.099.617 5.801 1.764 7.231 3.087 3.894 3.706 4.371 7.94 4.371 42.698 0 28.319-.159 31.583-1.431 34.141-1.668 3.529-4.291 5.117-10.489 6.352-5.404 1.147-7.152 2.999-5.324 5.911.397.617 9.218.882 27.018.882l26.462-.088-.238-2.647c-.239-2.382-.636-2.735-5.325-4.058-5.88-1.764-8.661-4.323-9.615-9.263-.397-1.853-.795-22.32-.795-45.433 0-31.406-.238-42.169-.953-42.963-1.192-1.323-2.543-1.235-10.887.794ZM24.157 168.868c-8.9 2.734-15.098 12.086-16.37 24.877-.556 4.941-1.112 5.735-4.767 5.735-2.384 0-2.623.264-2.623 2.646 0 2.117.318 2.647 1.828 2.647.954 0 2.543.264 3.576.529l1.748.529-.159 17.203-.238 17.203-3.576 1.499c-2.305.971-3.576 2.029-3.576 3 0 1.323 1.35 1.5 14.145 1.764l14.065.265v-2.029c0-1.676-.556-2.117-3.258-2.558-5.483-.971-5.483-1.059-5.483-20.291v-17.114h4.291c3.497 0 4.45-.265 4.848-1.676.953-3.353-.318-4.5-4.848-4.5h-4.29v-9.351c0-8.822.635-12.262 2.7-13.762 1.987-1.5 3.815-.441 6.517 3.705 2.384 3.705 3.258 4.411 5.404 4.411 3.02 0 6.04-3.088 6.04-6.087 0-7.058-7.63-11.204-15.974-8.645ZM105.292 193.922c-.636.353-2.94 2.293-5.006 4.322-2.146 2.118-5.245 4.323-6.993 4.853-1.67.617-3.1 1.411-3.1 1.764 0 .441 1.43 1.764 3.179 2.999l3.179 2.206v30.083l-3.576 1.676c-1.987.97-3.576 2.293-3.576 3.087 0 1.147 1.986 1.324 14.701 1.324 11.522 0 14.701-.265 14.701-1.147 0-1.941-1.748-3.264-4.371-3.264-5.085 0-5.403-.971-5.801-15.615-.317-11.027-.159-13.674.954-15.968 1.51-3.352 2.066-3.44 6.516-1.058 3.894 2.117 6.675 1.323 8.185-2.382 1.51-3.617 1.033-6.176-1.589-8.558-3.735-3.528-6.675-3.087-10.728 1.677l-3.417 3.881-.238-4.94c-.239-4.94-.795-5.822-3.02-4.94ZM318.657 194.186c-.874.441-2.781 2.118-4.212 3.882-1.51 1.676-4.291 3.793-6.198 4.587-4.053 1.677-4.53 3.617-1.113 5.029 1.272.529 2.543 1.588 2.861 2.382.715 2.029 1.43 25.054.795 27.701-.398 1.764-1.51 2.823-4.053 4.058-2.066.97-3.576 2.293-3.576 3.087 0 1.147 1.987 1.324 14.701 1.324 13.907 0 14.701-.089 14.701-1.677 0-1.852-1.51-2.734-4.688-2.734-3.973 0-4.609-1.853-5.086-15.88-.318-9.792-.159-13.497.636-15.703 1.271-3.352 1.986-3.44 6.436-1.058 5.086 2.734 9.06.264 9.06-5.646 0-3.353-.795-4.852-3.338-6.352-3.496-2.029-7.152-.971-10.092 2.823-1.351 1.676-2.543 3.529-2.623 4.146-.079.618-.317-1.5-.556-4.587-.477-5.911-1.033-6.617-3.655-5.382ZM51.653 197.098c-4.848 1.764-7.709 3.705-10.49 6.969-7.867 9.086-8.264 25.319-.874 34.67 6.357 8.028 16.926 11.116 27.495 7.94 4.45-1.324 5.96-2.382 9.377-6.087 4.768-5.294 6.675-10.675 6.675-18.615 0-10.762-4.847-19.496-12.873-23.378-5.165-2.47-14.622-3.176-19.31-1.499Zm14.7 6.351c3.338 3.529 4.292 7.587 4.292 17.644 0 11.204-1.272 16.409-4.847 19.849-3.02 3-6.517 3.441-11.046 1.324-4.61-2.117-6.199-7.322-6.199-20.732 0-12.703 1.034-16.497 5.245-19.408 3.735-2.646 9.377-2.029 12.556 1.323ZM170.454 197.451c-5.245 2.117-12.079 10.056-13.51 15.702C152.097 231.856 162.03 248 178.4 248c6.119 0 11.284-1.941 16.529-6.264 4.45-3.705 4.927-4.852 2.781-6.528-1.112-.882-1.986-.706-4.768.971-11.681 6.881-22.806.264-24.555-14.556l-.556-4.588 31.628.353-.239-2.999c-.477-4.764-2.145-8.293-5.721-12.175-5.484-5.91-15.019-7.851-23.045-4.763Zm11.84 4.234c2.384 1.323 4.847 5.999 4.847 9.175 0 1.764-.397 1.852-9.138 1.852-8.662 0-9.139-.088-9.139-1.764 0-2.647 2.066-6.616 4.45-8.734 2.464-2.205 5.881-2.382 8.98-.529ZM270.66 197.009c-3.735 1.147-8.9 5.205-11.523 8.999-3.02 4.499-4.45 9.616-4.45 16.32 0 8.205 1.907 13.674 6.357 18.703 4.848 5.381 10.013 7.322 17.801 6.793 6.675-.53 11.681-2.735 16.369-7.411l3.338-3.352-1.669-1.5c-1.589-1.5-1.827-1.411-5.324.706-2.861 1.764-4.927 2.294-8.662 2.382-4.37.088-5.483-.265-8.423-2.559-3.973-3.087-6.675-8.645-7.39-14.82l-.477-4.235 31.389.353-.159-3.176c-.715-12.439-14.542-21.261-27.177-17.203Zm10.886 4.764c2.225 1.676 4.133 5.734 4.133 8.734v2.205h-9.139c-10.092 0-10.171 0-8.026-5.646 2.225-5.999 8.741-8.645 13.032-5.293ZM202.24 200.097c0 1.412.715 2.382 2.622 3.264 2.384 1.059 3.179 2.647 9.615 18.703 10.41 25.848 10.41 25.936 13.112 25.936 2.146 0 2.543-.618 5.483-8.204 5.96-14.998 11.205-29.289 11.761-31.759.557-2.823 2.861-4.764 6.596-5.558 1.987-.441 2.463-.97 2.304-2.47-.238-1.765-.635-1.853-10.171-1.853h-9.933v2.206c0 1.941.397 2.205 3.417 2.47 2.463.176 3.337.617 3.337 1.676 0 1.853-6.119 21.878-7.787 25.407l-1.192 2.647-1.033-2.647c-.557-1.5-3.02-7.587-5.484-13.586-2.463-5.999-4.291-11.468-4.052-12.174.238-.617 1.271-1.147 2.225-1.147 2.702 0 4.053-1.323 3.496-3.176-.397-1.499-1.43-1.676-12.396-1.676-11.841 0-11.92 0-11.92 1.941Z"/></svg>
